X: 33769
T: Ravelled Hank Of Yarn, The
R: reel
M: 4/4
K: Gmajor
B3 B c2 Ac|B2 GB dcAF|DB B2 cAAg|fdcA AGG2|
B3 B c2 Ac|B2 GB dcAF|DB B2 cBce|fdcA AGG2||
fgaf g2 fd|cAAB cBcA|fgaf g2 ag|fdcA AGG2|
fgaf g2 fd|cAAB cBce|fgaf bgag|fdcA AGG2||

